svgs/sunnahapp.svg

<svg width="192" height="192" viewBox="0 0 192 192" fill="none" xmlns="http://www.w3.org/2000/svg">
<path d="M41.9136 47.9235C41.9136 44.6045 44.6042 41.9139 47.9232 41.9139H68.9566C72.2756 41.9139 74.9662 44.6045 74.9662 47.9235V68.957C74.9662 72.276 72.2756 74.9665 68.9566 74.9665H47.9232C44.6042 74.9665 41.9136 72.276 41.9136 68.957V47.9235Z" stroke="black" stroke-width="12" stroke-linejoin="round"/>
<path d="M41.9136 123.043C41.9136 119.724 44.6042 117.033 47.9232 117.033H68.9566C72.2756 117.033 74.9662 119.724 74.9662 123.043V144.077C74.9662 147.395 72.2756 150.086 68.9566 150.086H47.9232C44.6042 150.086 41.9136 147.395 41.9136 144.077V123.043Z" stroke="black" stroke-width="12" stroke-linejoin="round"/>
<path d="M117.033 47.9235C117.033 44.6045 119.724 41.9139 123.043 41.9139H144.076C147.395 41.9139 150.086 44.6045 150.086 47.9235V68.957C150.086 72.276 147.395 74.9665 144.076 74.9665H123.043C119.724 74.9665 117.033 72.276 117.033 68.957V47.9235Z" stroke="black" stroke-width="12" stroke-linejoin="round"/>
<path d="M117.033 123.043C117.033 119.724 119.724 117.033 123.043 117.033H144.076C147.395 117.033 150.086 119.724 150.086 123.043V144.077C150.086 147.395 147.395 150.086 144.076 150.086H123.043C119.724 150.086 117.033 147.395 117.033 144.077V123.043Z" stroke="black" stroke-width="12" stroke-linejoin="round"/>
<path d="M23.7602 100.249C21.4133 97.9025 21.4133 94.0975 23.7602 91.7506L38.6331 76.8777C40.9799 74.5308 44.785 74.5308 47.1319 76.8777L62.0048 91.7506C64.3517 94.0975 64.3517 97.9025 62.0048 100.249L47.1319 115.122C44.785 117.469 40.9799 117.469 38.6331 115.122L23.7602 100.249Z" stroke="black" stroke-width="12" stroke-linejoin="round"/>
<path d="M76.8777 153.367C74.5308 151.02 74.5308 147.215 76.8777 144.868L91.7506 129.995C94.0975 127.648 97.9025 127.648 100.249 129.995L115.122 144.868C117.469 147.215 117.469 151.02 115.122 153.367L100.249 168.24C97.9025 170.587 94.0975 170.587 91.7506 168.24L76.8777 153.367Z" stroke="black" stroke-width="12" stroke-linejoin="round"/>
<path d="M76.8777 47.1319C74.5308 44.785 74.5308 40.9799 76.8777 38.6331L91.7506 23.7602C94.0975 21.4133 97.9025 21.4133 100.249 23.7602L115.122 38.6331C117.469 40.9799 117.469 44.785 115.122 47.1319L100.249 62.0048C97.9025 64.3517 94.0975 64.3517 91.7506 62.0048L76.8777 47.1319Z" stroke="black" stroke-width="12" stroke-linejoin="round"/>
<path d="M129.995 100.249C127.648 97.9025 127.648 94.0975 129.995 91.7506L144.868 76.8777C147.215 74.5308 151.02 74.5308 153.367 76.8777L168.24 91.7506C170.587 94.0975 170.587 97.9025 168.24 100.249L153.367 115.122C151.02 117.469 147.215 117.469 144.868 115.122L129.995 100.249Z" stroke="black" stroke-width="12" stroke-linejoin="round"/>
</svg>

<svg xmlns="http://www.w3.org/2000/svg" width="192" height="192" fill="none" viewBox="0 0 192 192"><path stroke="#000" stroke-linejoin="round" stroke-width="12" d="M41.914 47.924a6.01 6.01 0 0 1 6.01-6.01h21.033a6.01 6.01 0 0 1 6.01 6.01v21.033a6.01 6.01 0 0 1-6.01 6.01H47.923a6.01 6.01 0 0 1-6.01-6.01zm0 75.119a6.01 6.01 0 0 1 6.01-6.01h21.033a6.01 6.01 0 0 1 6.01 6.01v21.034a6.01 6.01 0 0 1-6.01 6.009H47.923a6.01 6.01 0 0 1-6.01-6.009zm75.119-75.119a6.01 6.01 0 0 1 6.01-6.01h21.033a6.01 6.01 0 0 1 6.01 6.01v21.033a6.01 6.01 0 0 1-6.01 6.01h-21.033a6.01 6.01 0 0 1-6.01-6.01zm0 75.119a6.01 6.01 0 0 1 6.01-6.01h21.033a6.01 6.01 0 0 1 6.01 6.01v21.034a6.01 6.01 0 0 1-6.01 6.009h-21.033a6.01 6.01 0 0 1-6.01-6.009zM23.76 100.249a6.01 6.01 0 0 1 0-8.498l14.873-14.873a6.01 6.01 0 0 1 8.499 0L62.005 91.75a6.01 6.01 0 0 1 0 8.498l-14.873 14.873a6.01 6.01 0 0 1-8.499 0zm53.118 53.118a6.01 6.01 0 0 1 0-8.499l14.873-14.873a6.01 6.01 0 0 1 8.498 0l14.873 14.873a6.01 6.01 0 0 1 0 8.499l-14.873 14.873a6.01 6.01 0 0 1-8.498 0zm0-106.235a6.01 6.01 0 0 1 0-8.499L91.75 23.76a6.01 6.01 0 0 1 8.498 0l14.873 14.873a6.01 6.01 0 0 1 0 8.499l-14.873 14.873a6.01 6.01 0 0 1-8.498 0zm53.117 53.117a6.01 6.01 0 0 1 0-8.498l14.873-14.873a6.01 6.01 0 0 1 8.499 0L168.24 91.75a6.01 6.01 0 0 1 0 8.498l-14.873 14.873a6.01 6.01 0 0 1-8.499 0z"/></svg>
